X: 719
T: The Kitchen Girl
B: jims roots
B: ralph
M:4/4
L:1/8
R: reel
Q: 1/4=100
K:Amix
V:1 
|:"A" [c4a4] "G"[B4g4] | "A"efed cAcd | ecef "G"gaba | "E"^g2 e2 e2 ef | "A" [c4a4] "G"[B4g4]|
"A"efed cAcd | efgd "E"efed |[1 "A"c2 A2 A2 ef:|[2 "A"c2 A2 A2 AB||
|:[K: Amin]"Am" c2 Ac "G"BAGB|"Am"ABAG E2 EG|A2 B2 c2 d2|"E"[B4e4] [B4e4]|"Am"cBAc "G"BAGB|
"Am"ABAG EGAB|c2 Ac "E"BAGB|[1 "Am"A2 AA A2 AB:|[2 "Am"A2 AA A4||
|:[K:Amix]"A"abaf "G"gagg | "A"efed cdef | g2 d2 "E"efed|[1 "A"c2A2A2 eg:|[2 "A"c2A2A2 A2 ||
% abcbook-tune_id 6298c25d5c436d6738002174


% abcbook-boost 0
% abcbook-tablature 
% abcbook-transpose 
% abcbook-lastupdated 1665486214384
% abcbook-soundfonts 
% abcbook-repeats 1
% BillScates

